.local/share/icons/Gruvbox-Plus-Dark/actions/16/pixelart-trace.svg

<svg width="16" height="16" version="1.1" xmlns="http://www.w3.org/2000/svg">
  <defs>
    <style id="current-color-scheme" type="text/css">.ColorScheme-Text { color:#ebdbb2; } .ColorScheme-Highlight { color:#458588; }</style>
  </defs>
  <path class="ColorScheme-Text" d="m7 9v1h1v-1zm1 1v1h1v-1zm1 1v1h1v-1zm1 0h1v-1h-1zm-3-1h-1v1h1zm-1 1h-1v1h1z" fill="currentColor" opacity=".3"/>
  <path class="ColorScheme-Text" d="m1 1v1h1v1h1v-2zm2 2v1h1v-1zm1 0h1v-1h-1zm1-1h5v-1h-5zm5 0v1h3v-1h2v-1h-4v1zm-7 2h-1v2h1zm-1 2h-1v2h1zm0 2v1h1v-1zm0 1h-1v2h1zm0 2v1h1v-1zm1 1v1h1v-1zm1 1v1h1v-1zm1 1v1h6v-1zm6 0h1v-1h-1zm1-1h1v-1h-1zm1-1h1v-1h-1zm1-1h1v-2h-1zm0-2v-4h-1v4zm-1-4v-1h-1v1zm-8 0v1h1v-1zm0 1h-1v1h1zm0 1v1h1v-1zm4-2v1h2v-1zm2 1v1h1v-1zm0 1h-2v1h2zm-2 0v-1h-1v1z" fill="currentColor"/>
</svg>

<svg xmlns="http://www.w3.org/2000/svg" width="16" height="16" version="1.1">
 <defs>
  <style id="current-color-scheme" type="text/css">
   .ColorScheme-Text { color:#565656; } .ColorScheme-Highlight { color:#4285f4; }
  </style>
 </defs>
 <path style="opacity:0.3;fill:currentColor" class="ColorScheme-Text" d="M 7,9 V 10 H 8 V 9 Z M 8,10 V 11 H 9 V 10 Z M 9,11 V 12 H 10 V 11 Z M 10,11 H 11 V 10 H 10 Z M 7,10 H 6 V 11 H 7 Z M 6,11 H 5 V 12 H 6 Z"/>
 <path style="fill:currentColor" class="ColorScheme-Text" d="M 1,1 V 2 H 2 V 3 H 3 V 1 Z M 3,3 V 4 H 4 V 3 Z M 4,3 H 5 V 2 H 4 Z M 5,2 H 10 V 1 H 5 Z M 10,2 V 3 H 13 V 2 H 15 V 1 H 11 V 2 Z M 3,4 H 2 V 6 H 3 Z M 2,6 H 1 V 8 H 2 Z M 2,8 V 9 H 3 V 8 Z M 2,9 H 1 V 11 H 2 Z M 2,11 V 12 H 3 V 11 Z M 3,12 V 13 H 4 V 12 Z M 4,13 V 14 H 5 V 13 Z M 5,14 V 15 H 11 V 14 Z M 11,14 H 12 V 13 H 11 Z M 12,13 H 13 V 12 H 12 Z M 13,12 H 14 V 11 H 13 Z M 14,11 H 15 V 9 H 14 Z M 14,9 V 5 H 13 V 9 Z M 13,5 V 4 H 12 V 5 Z M 5,5 V 6 H 6 V 5 Z M 5,6 H 4 V 7 H 5 Z M 5,7 V 8 H 6 V 7 Z M 9,5 V 6 H 10 11 V 5 Z M 11,6 V 7 H 12 V 6 Z M 11,7 H 10 9 V 8 H 11 Z M 9,7 V 6 H 8 V 7 Z"/>
</svg>
